icon/pk/analysis.svg

<svg viewBox="0 0 48 48" fill="none" xmlns="http://www.w3.org/2000/svg" height="1em" width="1em">
  <path d="M44 5H3.99998V17H44V5Z" fill="#2F88FF" stroke="black" stroke-width="4" stroke-linejoin="round"/>
  <path d="M3.99998 41.0301L16.1756 28.7293L22.7549 35.0301L30.7982 27L35.2786 31.368" stroke="black" stroke-width="4" stroke-linecap="round" stroke-linejoin="round"/>
  <path d="M44 16.1719V42.1719" stroke="black" stroke-width="4" stroke-linecap="round"/>
  <path d="M3.99998 16.1719V30.1719" stroke="black" stroke-width="4" stroke-linecap="round"/>
  <path d="M13.0155 43H44" stroke="black" stroke-width="4" stroke-linecap="round"/>
  <path d="M17 11H38" stroke="white" stroke-width="4" stroke-linecap="round"/>
  <path d="M9.99998 10.9966H11" stroke="white" stroke-width="4" stroke-linecap="round"/>
</svg>

<svg width="48" height="48" fill="none" xmlns="http://www.w3.org/2000/svg"><path d="M44 5H4v12h40V5Z" fill="#2F88FF" stroke="#000" stroke-width="4" stroke-linejoin="round"/><path d="m4 41.03 12.176-12.3 6.579 6.3L30.798 27l4.48 4.368" stroke="#000" stroke-width="4" stroke-linecap="round" stroke-linejoin="round"/><path d="M44 16.172v26M4 16.172v14M13.015 43H44" stroke="#000" stroke-width="4" stroke-linecap="round"/><path d="M17 11h21M10 10.997h1" stroke="#fff" stroke-width="4" stroke-linecap="round"/></svg>
